icons/outline/device-landline-phone.svg

<!--
tags: [telephone, call, comunication, digital]
category: Devices
unicode: "f649"
version: "1.118"
-->
<svg
  xmlns="http://www.w3.org/2000/svg"
  width="24"
  height="24"
  viewBox="0 0 24 24"
  fill="none"
  stroke="currentColor"
  stroke-width="2"
  stroke-linecap="round"
  stroke-linejoin="round"
>
  <path d="M20 3h-2a2 2 0 0 0 -2 2v14a2 2 0 0 0 2 2h2a2 2 0 0 0 2 -2v-14a2 2 0 0 0 -2 -2zm-4 1h-11a3 3 0 0 0 -3 3v10a3 3 0 0 0 3 3h11m-4 -12h-6v3h6zm0 6v.01m-3 -.01v.01m-3 -.01v.01m6 2.99v.01m-3 -.01v.01m-3 -.01v.01" />
</svg>

<!--
tags: [telephone, call, comunication, digital]
category: Devices
unicode: "f649"
version: "1.118"
-->
<svg
  xmlns="http://www.w3.org/2000/svg"
  width="24"
  height="24"
  viewBox="0 0 24 24"
  fill="none"
  stroke="currentColor"
  stroke-width="2"
  stroke-linecap="round"
  stroke-linejoin="round"
>
    <path d="M20 3h-2a2 2 0 0 0 -2 2v14a2 2 0 0 0 2 2h2a2 2 0 0 0 2 -2v-14a2 2 0 0 0 -2 -2zM16 4h-11a3 3 0 0 0 -3 3v10a3 3 0 0 0 3 3h11M12 8h-6v3h6zM12 14v.01M9 14v.01M6 14v.01M12 17v.01M9 17v.01M6 17v.01" />
</svg>
